X:366
T:Paddy Whack. RH.366
R:jig
S:Rev.R.Harrison’s MS,c1815,Cumbria
O:England
A:Temple Sowerby,Cumbria
Z:vmp.Simon Wilson. Review PJH, 2008.
M:6/8
L:1/8
Q:3/8=120
K:G
D|GBd gfg|edc BAG|GBd gfg|fdd d2e/f/|!
gfg fdB|cec dBG|GBd cAc|BGG G2:|!
|:BBB ccc|dBG A2A|Bcd efg|fdd d2e/f/|!
gfg fdB|cec dBG|GBd cAc|BGG G2:|

